flaticon/web-design/video-player.svg

<svg xmlns="http://www.w3.org/2000/svg" width="32" height="32" viewBox="0 0 24 24">
    <path d="M6.789062 19.539062L4.585938 19.539062C4.378906 19.539062 4.207031 19.707031 4.207031 19.917969L4.207031 21.921875C4.207031 22.128906 4.375 22.296875 4.585938 22.296875L6.789062 22.296875C6.996094 22.296875 7.164062 22.128906 7.164062 21.921875L7.164062 19.917969C7.164062 19.707031 6.996094 19.539062 6.789062 19.539062zM6.414062 21.542969L4.960938 21.542969 4.960938 20.292969 6.414062 20.292969zM10.996094 19.539062L8.792969 19.539062C8.585938 19.539062 8.417969 19.707031 8.417969 19.917969L8.417969 21.921875C8.417969 22.128906 8.585938 22.296875 8.792969 22.296875L10.996094 22.296875C11.207031 22.296875 11.375 22.128906 11.375 21.921875L11.375 19.917969C11.375 19.707031 11.207031 19.539062 10.996094 19.539062zM10.621094 21.542969L9.167969 21.542969 9.167969 20.292969 10.621094 20.292969zM19.414062 1.503906L17.210938 1.503906C17.003906 1.503906 16.835938 1.671875 16.835938 1.878906L16.835938 3.882812C16.835938 4.089844 17.003906 4.257812 17.210938 4.257812L19.414062 4.257812C19.621094 4.257812 19.792969 4.089844 19.792969 3.882812L19.792969 1.878906C19.792969 1.671875 19.625 1.503906 19.414062 1.503906zM19.039062 3.507812L17.585938 3.507812 17.585938 2.253906 19.039062 2.253906zM15.207031 19.539062L13.003906 19.539062C12.792969 19.539062 12.625 19.707031 12.625 19.917969L12.625 21.921875C12.625 22.128906 12.792969 22.296875 13.003906 22.296875L15.207031 22.296875C15.414062 22.296875 15.582031 22.128906 15.582031 21.921875L15.582031 19.917969C15.582031 19.707031 15.414062 19.539062 15.207031 19.539062zM14.832031 21.542969L13.378906 21.542969 13.378906 20.292969 14.832031 20.292969zM6.789062 1.503906L4.585938 1.503906C4.378906 1.503906 4.207031 1.671875 4.207031 1.878906L4.207031 3.882812C4.207031 4.089844 4.375 4.257812 4.585938 4.257812L6.789062 4.257812C6.996094 4.257812 7.164062 4.089844 7.164062 3.882812L7.164062 1.878906C7.164062 1.671875 6.996094 1.503906 6.789062 1.503906zM6.414062 3.507812L4.960938 3.507812 4.960938 2.253906 6.414062 2.253906zM15.207031 1.503906L13.003906 1.503906C12.792969 1.503906 12.625 1.671875 12.625 1.878906L12.625 3.882812C12.625 4.089844 12.792969 4.257812 13.003906 4.257812L15.207031 4.257812C15.414062 4.257812 15.582031 4.089844 15.582031 3.882812L15.582031 1.878906C15.582031 1.671875 15.414062 1.503906 15.207031 1.503906zM14.832031 3.507812L13.378906 3.507812 13.378906 2.253906 14.832031 2.253906zM10.996094 1.503906L8.792969 1.503906C8.585938 1.503906 8.417969 1.671875 8.417969 1.878906L8.417969 3.882812C8.417969 4.089844 8.585938 4.257812 8.792969 4.257812L10.996094 4.257812C11.207031 4.257812 11.375 4.089844 11.375 3.882812L11.375 1.878906C11.375 1.671875 11.207031 1.503906 10.996094 1.503906zM10.621094 3.507812L9.167969 3.507812 9.167969 2.253906 10.621094 2.253906zM10.621094 3.507812"/>
    <path d="M 23.625 2.253906 C 23.832031 2.253906 24 2.085938 24 1.878906 L 24 0.675781 C 24 0.46875 23.832031 0.300781 23.625 0.300781 L 0.375 0.300781 C 0.167969 0.300781 0 0.46875 0 0.675781 L 0 1.878906 C 0 2.085938 0.167969 2.253906 0.375 2.253906 L 2.203125 2.253906 L 2.203125 3.507812 L 0.375 3.507812 C 0.167969 3.507812 0 3.675781 0 3.882812 L 0 19.917969 C 0 20.125 0.167969 20.292969 0.375 20.292969 L 2.203125 20.292969 L 2.203125 21.542969 L 0.375 21.542969 C 0.167969 21.542969 0 21.714844 0 21.921875 L 0 23.324219 C 0 23.53125 0.167969 23.699219 0.375 23.699219 L 23.625 23.699219 C 23.832031 23.699219 24 23.53125 24 23.324219 L 24 21.921875 C 24 21.714844 23.832031 21.542969 23.625 21.542969 L 21.796875 21.542969 L 21.796875 20.292969 L 23.625 20.292969 C 23.832031 20.292969 24 20.125 24 19.917969 L 24 3.882812 C 24 3.675781 23.832031 3.507812 23.625 3.507812 L 21.796875 3.507812 L 21.796875 2.253906 Z M 23.25 19.539062 L 21.417969 19.539062 C 21.210938 19.539062 21.042969 19.707031 21.042969 19.917969 L 21.042969 21.921875 C 21.042969 22.128906 21.210938 22.296875 21.417969 22.296875 L 23.25 22.296875 L 23.25 22.949219 L 0.75 22.949219 L 0.75 22.296875 L 2.582031 22.296875 C 2.789062 22.296875 2.957031 22.128906 2.957031 21.921875 L 2.957031 19.917969 C 2.957031 19.707031 2.789062 19.539062 2.582031 19.539062 L 0.75 19.539062 L 0.75 18.890625 L 23.25 18.890625 Z M 23.25 18.136719 L 0.75 18.136719 L 0.75 5.863281 L 23.25 5.863281 Z M 21.417969 4.257812 L 23.25 4.257812 L 23.25 5.109375 L 0.75 5.109375 L 0.75 4.257812 L 2.582031 4.257812 C 2.789062 4.257812 2.957031 4.089844 2.957031 3.882812 L 2.957031 1.878906 C 2.957031 1.671875 2.789062 1.503906 2.582031 1.503906 L 0.75 1.503906 L 0.75 1.050781 L 23.25 1.050781 L 23.25 1.503906 L 21.417969 1.503906 C 21.210938 1.503906 21.042969 1.671875 21.042969 1.878906 L 21.042969 3.882812 C 21.042969 4.089844 21.210938 4.257812 21.417969 4.257812 Z M 21.417969 4.257812"/>
    <path d="M19.414062 19.539062L17.210938 19.539062C17.003906 19.539062 16.835938 19.707031 16.835938 19.917969L16.835938 21.921875C16.835938 22.128906 17.003906 22.296875 17.210938 22.296875L19.414062 22.296875C19.621094 22.296875 19.792969 22.128906 19.792969 21.921875L19.792969 19.917969C19.792969 19.707031 19.625 19.539062 19.414062 19.539062zM19.039062 21.542969L17.585938 21.542969 17.585938 20.292969 19.039062 20.292969zM12 6.613281C9.03125 6.613281 6.613281 9.03125 6.613281 12 6.613281 14.96875 9.03125 17.386719 12 17.386719 14.96875 17.386719 17.386719 14.96875 17.386719 12 17.386719 9.03125 14.96875 6.613281 12 6.613281zM12 16.632812C9.445312 16.632812 7.367188 14.554688 7.367188 12 7.367188 9.445312 9.445312 7.367188 12 7.367188 14.554688 7.367188 16.632812 9.445312 16.632812 12 16.632812 14.554688 14.554688 16.632812 12 16.632812zM12 16.632812"/>
    <path d="M15.757812 10.671875C15.414062 9.707031 14.691406 8.886719 13.769531 8.429688 13.585938 8.339844 13.359375 8.414062 13.265625 8.601562 13.175781 8.785156 13.25 9.011719 13.4375 9.105469 14.183594 9.476562 14.769531 10.136719 15.046875 10.921875 15.101562 11.078125 15.246094 11.171875 15.402344 11.171875 15.445312 11.171875 15.484375 11.167969 15.527344 11.152344 15.722656 11.082031 15.824219 10.867188 15.757812 10.671875zM14.035156 11.660156L10.984375 9.296875C10.871094 9.210938 10.71875 9.195312 10.589844 9.257812 10.460938 9.320312 10.378906 9.453125 10.378906 9.59375L10.378906 14.40625C10.378906 14.550781 10.460938 14.679688 10.59375 14.742188 10.644531 14.769531 10.699219 14.78125 10.753906 14.78125 10.839844 14.78125 10.921875 14.753906 10.988281 14.699219L14.039062 12.25C14.128906 12.179688 14.179688 12.070312 14.179688 11.953125 14.179688 11.839844 14.125 11.730469 14.035156 11.660156zM11.128906 13.621094L11.128906 10.363281 13.195312 11.960938zM11.128906 13.621094"/>
</svg>

<svg xmlns="http://www.w3.org/2000/svg" width="32" height="32" viewBox="0 0 24 24">
    <path d="M6.79 19.54H4.585a.38.38 0 0 0-.379.378v2.004c0 .207.168.375.379.375h2.203a.375.375 0 0 0 .375-.375v-2.004a.376.376 0 0 0-.375-.379zm-.376 2.003H4.961v-1.25h1.453zm0 0M10.996 19.54H8.793a.376.376 0 0 0-.375.378v2.004c0 .207.168.375.375.375h2.203c.211 0 .379-.168.379-.375v-2.004a.377.377 0 0 0-.379-.379zm-.375 2.003H9.168v-1.25h1.453zm0 0M19.414 1.504h-2.203a.375.375 0 0 0-.375.375v2.004c0 .207.168.375.375.375h2.203a.378.378 0 0 0 .379-.375V1.879a.376.376 0 0 0-.379-.375zm-.375 2.004h-1.453V2.254h1.453zm0 0M15.207 19.54h-2.203a.377.377 0 0 0-.379.378v2.004c0 .207.168.375.379.375h2.203a.375.375 0 0 0 .375-.375v-2.004a.376.376 0 0 0-.375-.379zm-.375 2.003h-1.453v-1.25h1.453zm0 0M6.79 1.504H4.585a.378.378 0 0 0-.379.375v2.004c0 .207.168.375.379.375h2.203a.375.375 0 0 0 .375-.375V1.879a.375.375 0 0 0-.375-.375zm-.376 2.004H4.961V2.254h1.453zm0 0M15.207 1.504h-2.203a.376.376 0 0 0-.379.375v2.004c0 .207.168.375.379.375h2.203a.375.375 0 0 0 .375-.375V1.879a.375.375 0 0 0-.375-.375zm-.375 2.004h-1.453V2.254h1.453zm0 0M10.996 1.504H8.793a.375.375 0 0 0-.375.375v2.004c0 .207.168.375.375.375h2.203c.211 0 .379-.168.379-.375V1.879a.376.376 0 0 0-.379-.375zm-.375 2.004H9.168V2.254h1.453zm0 0"/>
    <path d="M23.625 2.254A.375.375 0 0 0 24 1.879V.676A.375.375 0 0 0 23.625.3H.375A.375.375 0 0 0 0 .676v1.203c0 .207.168.375.375.375h1.828v1.254H.375A.375.375 0 0 0 0 3.883v16.035c0 .207.168.375.375.375h1.828v1.25H.375a.378.378 0 0 0-.375.379v1.402c0 .207.168.375.375.375h23.25a.375.375 0 0 0 .375-.375v-1.402a.378.378 0 0 0-.375-.379h-1.828v-1.25h1.828a.375.375 0 0 0 .375-.375V3.883a.375.375 0 0 0-.375-.375h-1.828V2.254zm-.375 17.285h-1.832a.376.376 0 0 0-.375.379v2.004c0 .207.168.375.375.375h1.832v.652H.75v-.652h1.832a.375.375 0 0 0 .375-.375v-2.004a.376.376 0 0 0-.375-.379H.75v-.648h22.5zm0-1.402H.75V5.863h22.5zm-1.832-13.88h1.832v.852H.75v-.851h1.832a.375.375 0 0 0 .375-.375V1.879a.375.375 0 0 0-.375-.375H.75V1.05h22.5v.453h-1.832a.375.375 0 0 0-.375.375v2.004c0 .207.168.375.375.375zm0 0"/>
    <path d="M19.414 19.54h-2.203a.376.376 0 0 0-.375.378v2.004c0 .207.168.375.375.375h2.203a.378.378 0 0 0 .379-.375v-2.004a.377.377 0 0 0-.379-.379zm-.375 2.003h-1.453v-1.25h1.453zm0 0M12 6.613A5.395 5.395 0 0 0 6.613 12 5.395 5.395 0 0 0 12 17.387 5.395 5.395 0 0 0 17.387 12 5.395 5.395 0 0 0 12 6.613zm0 10.02A4.638 4.638 0 0 1 7.367 12 4.638 4.638 0 0 1 12 7.367 4.638 4.638 0 0 1 16.633 12 4.638 4.638 0 0 1 12 16.633zm0 0"/>
    <path d="M15.758 10.672A4.035 4.035 0 0 0 13.77 8.43a.379.379 0 0 0-.504.172.379.379 0 0 0 .171.503 3.256 3.256 0 0 1 1.61 1.817c.055.156.2.25.355.25a.348.348 0 0 0 .125-.02.38.38 0 0 0 .23-.48zm0 0M14.035 11.66l-3.05-2.363a.376.376 0 1 0-.605.297l-.001 4.812c0 .145.082.274.215.336a.365.365 0 0 0 .395-.043l3.05-2.449a.374.374 0 0 0-.004-.59zm-2.906 1.961v-3.258l2.066 1.598zm0 0"/>
</svg>
